X:1
T:Psalm 50
T:V 8
L:1/4
M:12/4
I:linebreak $
K:C
V:1 treble nm="Pipe Organ" snm="Org."
V:1
 A2 d d ^c A B c d3 z |$[M:14/4] d2 ^c B A G ^F2 E2 D3 z |$[M:12/4] D2 E ^F G A A ^G A3 z |$ %3
w: Aan wie sy wet ver- werp, sê God:|"Wat meld jy nog van my ver- bond?|En spreek jy nog van my ge- bod?|
[M:14/4] A2 B B d d ^c2 B2 A3 z |$ A2 G ^F B A G2 F2 E3 z |$ E2 ^F G A B A2 ^G2 A4 |] %6
w: My hei- lig- he- de in jóú mond!-|ter- wyl jy tog my roe- de haat,|my woord ver- werp om My te smaad.|

